packages/core/src/svgs/tokens/mono/FLAME.svg

<svg width="24" height="24" viewBox="0 0 24 24" fill="none" xmlns="http://www.w3.org/2000/svg">
<path d="M6.45105 21.4453C3.13524 19.0326 1.88375 15.1878 4.03193 11.1172C4.17385 10.8462 4.59962 10.943 4.68347 11.2334C4.99957 12.272 5.63823 12.7945 5.63823 12.7945C5.4318 12.3236 4.64477 7.22731 8.44439 4.8856C8.66374 4.75013 8.93468 4.95011 8.89596 5.20815C8.72825 6.51125 8.59922 9.31097 10.8442 8.52396C12.8827 7.81435 11.4182 4.08567 10.67 2.47294C10.541 2.20844 10.8055 1.91814 11.0764 2.02137C15.5921 3.89215 19.1143 6.92412 17.8435 12.4267C18.179 12.4913 19.282 12.2977 19.9077 11.3818C20.0691 11.1431 20.4496 11.1301 20.5271 11.4075C21.1529 13.5234 22.0753 19.0648 17.1532 22C16.9262 21.4592 16.5774 20.9778 16.134 20.5938C16.0824 20.555 16.0372 20.5679 15.9985 20.6196C15.8049 20.884 15.1599 21.6968 14.5213 21.7485C13.36 21.8388 12.7021 20.555 12.9924 19.1551C13.0246 19.0004 12.8827 18.852 12.7343 18.8971C10.8893 19.4971 10.412 20.7356 10.412 20.7356C9.61197 20.0841 8.90888 18.8649 9.0573 16.1168C9.07009 15.9103 8.81211 15.8072 8.69599 15.9878C7.97993 17.0716 6.55426 19.4519 6.44459 21.4453H6.45105Z" fill="white"/>
</svg>

<svg xmlns="http://www.w3.org/2000/svg" width="24" height="24" fill="none" viewBox="0 0 24 24">
    <path fill="#fff" d="M6.451 21.445c-3.316-2.412-4.567-6.257-2.42-10.328.143-.27.569-.174.652.116.317 1.039.955 1.561.955 1.561-.206-.47-.993-5.567 2.806-7.908.22-.136.49.064.452.322-.168 1.303-.297 4.103 1.948 3.316 2.039-.71.574-4.438-.174-6.051-.129-.265.136-.555.406-.452 4.516 1.871 8.038 4.903 6.767 10.406.336.064 1.439-.13 2.065-1.045.161-.239.542-.252.62.026.625 2.115 1.547 7.657-3.375 10.592a3.8 3.8 0 0 0-1.019-1.406c-.052-.039-.097-.026-.136.026-.193.264-.838 1.077-1.477 1.128-1.161.09-1.819-1.193-1.529-2.593.033-.155-.11-.303-.258-.258-1.845.6-2.322 1.839-2.322 1.839-.8-.652-1.503-1.871-1.355-4.62.013-.206-.245-.309-.361-.128-.716 1.084-2.142 3.464-2.251 5.457z"/>
</svg>
